X:1
T:O'Keeffe's Slide #3
Z:Jeffrey Myers <jmyers:GOUCHER.EDU>
M:12/8
L:1/8
K:D
|: A2F A2d f3 f3 | gfe fed B3 B2A | Bcd B2A Bcd B2A |1 Bcd efe d3 dcB :|2 Bcd efe d3 d2f :|
|: a3 a2f e2d BAB | e2d BAB e2d BAB | a3 a2f e2d BAB |1 Bcd efe d3 d2f :|2 Bcd efe d3 dcB ||]
